libs/shared/images/icons-sharp-light/nfc-magnifying-glass.svg

<svg xmlns="http://www.w3.org/2000/svg" viewBox="0 0 640 512"><defs><style>.fa-secondary{opacity:.4}</style></defs><path class="fa-secondary" d="M0 32L0 480l448 0c-52.3 0-98.8-25.1-128-64L80 416l-16 0 0-16 0-288 0-16 16 0 64 0 16 0 0 32-16 0-48 0 0 256 205.3 0c-8.6-19.6-13.3-41.2-13.3-64c0-52.3 25.1-98.8 64-128l0-64-112 0 0 82.7c18.6 6.6 32 24.4 32 45.3c0 26.5-21.5 48-48 48s-48-21.5-48-48c0-20.9 13.4-38.7 32-45.3l0-98.7 0-16 16 0 144 0 16 0 0 16 0 61.3c19.6-8.6 41.2-13.3 64-13.3l0-128L0 32z"/><path class="fa-primary" d="M528 320.1a80 80 0 1 0 -160 0 80 80 0 1 0 160 0zM520 426c-20.5 14-45.3 22.1-72 22.1c-70.7 0-128-57.3-128-128s57.3-128 128-128s128 57.3 128 128c0 26.7-8.2 51.4-22.1 71.9l63 62.6 17 16.9-33.8 34-17-16.9L520 426z"/></svg>

<svg xmlns="http://www.w3.org/2000/svg" viewBox="0 0 640 512"><path d="M416 64H32V448H352c26.7 20.1 60 32 96 32H416 32 0V448 64 32H32 416h32V64v96c-11 0-21.7 1.1-32 3.2V64zm-32 48v61.3c-11.4 5-22.2 11.3-32 18.7V128H240v82.7c18.6 6.6 32 24.4 32 45.3c0 26.5-21.5 48-48 48s-48-21.5-48-48c0-20.9 13.4-38.7 32-45.3V112 96h16H368h16v16zM320 416H80 64V400 112 96H80h64 16v32H144 96V384H301.3c5 11.4 11.3 22.2 18.7 32zM224 240a16 16 0 1 0 0 32 16 16 0 1 0 0-32zM448 416.2a96 96 0 1 0 0-192 96 96 0 1 0 0 192zm0 32c-70.7 0-128-57.3-128-128s57.3-128 128-128s128 57.3 128 128c0 29.6-10 56.8-26.9 78.5l78.1 77.7 11.3 11.3-22.6 22.7L604.7 499l-78.2-77.8c-21.7 16.9-48.9 26.9-78.5 26.9z"/></svg>
